public/assets/images/pep/tff3.svg

<svg width="360" height="360" viewBox="0 0 360 360" fill="none" xmlns="http://www.w3.org/2000/svg">
<path d="M296.5 284.599C259.8 284.599 223.1 284.599 186.4 284.599C150.7 284.599 114.9 284.599 79.4996 284.599C72.4996 284.599 67.0996 281.699 63.1996 275.599C59.7996 270.699 59.0996 265.399 61.6996 260.299C63.5996 256.199 66.7996 252.999 71.3996 250.799C77.6996 247.599 82.7996 250.099 88.1996 252.499C89.1996 252.999 90.3996 254.199 91.0996 255.699C92.9996 259.299 94.2996 262.999 95.1996 266.899C95.6996 269.099 97.8996 269.099 99.7996 269.099C102.2 269.099 101.7 267.399 101.7 265.899C101.7 239.599 101.7 213.199 101.7 186.899C101.7 159.899 101.7 133.199 101.7 106.199C101.7 103.299 102.4 102.299 105.6 102.299C169 102.299 232.5 102.299 295.9 102.299C301 102.299 300 102.299 300 106.399C300 164.499 300 222.599 300 280.699C300.2 283.899 299.5 284.599 296.5 284.599ZM60.2996 230.699C60.2996 185.499 60.2996 140.299 60.2996 95.0992C60.2996 89.2992 62.4996 84.3992 66.3996 80.2992C70.2996 76.3992 78.9996 75.6992 84.0996 78.0992C85.9996 79.0992 87.9996 79.5992 89.3996 81.4992C92.5996 84.8992 94.4996 88.4992 94.4996 93.1992C94.4996 118.499 94.4996 143.799 94.4996 168.999C94.4996 194.499 94.4996 219.999 94.4996 245.299C94.4996 246.499 95.1996 247.999 93.2996 248.499C92.7996 248.499 92.2996 248.999 92.0996 248.299C91.0996 245.399 88.1996 244.699 85.9996 244.199C82.7996 243.499 79.8996 240.999 76.7996 241.999C72.1996 243.499 66.5996 242.999 63.1996 247.599C62.4996 248.599 61.6996 248.299 60.9996 248.299C59.7996 248.099 60.2996 247.099 60.2996 246.399C60.2996 240.899 60.2996 235.799 60.2996 230.699ZM306.3 287.099C306.3 225.099 306.3 163.099 306.3 100.899C306.3 100.199 306.3 99.1992 306.5 98.4992C306.7 96.5992 306 95.2992 304.1 95.2992C302.6 95.2992 301.2 95.2992 299.7 95.2992C235.8 95.2992 172.1 95.2992 108.2 95.2992C102.4 95.2992 102.6 95.2992 101.9 89.4992C101.7 87.0992 101.2 84.5992 98.9996 82.4992C97.7996 81.2992 97.2996 78.8992 95.7996 77.3992C92.5996 74.1992 89.4996 71.5992 84.8996 70.0992C81.9996 69.3992 79.0996 68.8992 76.0996 68.5992C71.6996 68.3992 68.5996 70.4992 65.1996 72.4992C61.0996 74.6992 59.0996 78.2992 56.1996 81.4992C55.4996 82.4992 54.9996 84.1992 54.9996 84.8992C54.9996 88.7992 53.0996 92.3992 53.0996 96.2992C53.0996 152.399 53.0996 208.599 53.2996 264.699C53.2996 269.299 54.4996 273.899 57.1996 278.099C57.8996 279.099 57.8996 279.999 57.8996 281.299C58.0996 281.299 58.5996 281.299 58.5996 281.499C60.9996 285.899 64.6996 288.299 69.4996 289.299C70.6996 291.199 73.3996 289.499 74.5996 291.499C74.7996 291.499 75.2996 291.499 75.5996 291.499C103.8 291.499 132.2 291.499 160.4 291.499C208 291.499 255.4 291.499 303.1 291.499C303.6 291.499 304.1 291.499 304.6 291.499C305.3 290.799 306.3 289.799 307 289.099C306 288.799 306.3 287.799 306.3 287.099Z" fill="white"/>
<path d="M231.999 146.398C226.699 140.298 219.399 137.598 212.299 134.998C208.199 133.498 203.499 133.998 199.199 133.998C193.599 133.998 187.799 135.498 182.399 136.898C178.799 137.898 176.799 141.298 173.399 142.198C170.999 142.898 169.299 145.098 168.099 146.798C165.699 150.698 162.799 154.298 161.799 159.198C161.099 162.598 159.399 165.798 159.599 169.698C159.599 171.398 160.099 172.098 161.999 172.098C168.299 172.098 174.899 172.098 181.199 172.098C182.899 172.098 183.899 171.398 184.599 169.898C185.799 167.498 186.099 164.798 186.799 162.398C190.399 152.898 206.499 151.898 211.599 161.198C213.099 164.098 214.799 166.798 213.299 170.198C210.899 175.098 206.699 178.498 202.799 181.898C198.899 185.298 193.999 187.998 191.599 193.098C189.399 197.698 187.199 202.298 187.499 207.398C187.499 209.098 187.499 210.998 187.499 212.698C194.099 212.698 200.599 212.698 207.199 212.898C208.399 212.898 208.899 212.698 209.399 211.198C210.399 208.998 210.099 206.298 211.099 204.198C212.999 199.798 217.399 197.898 220.599 194.998C221.799 193.998 222.999 192.598 224.499 192.098C226.699 191.398 228.099 189.898 229.399 187.998C229.899 186.998 235.199 182.198 238.199 174.898C240.899 168.598 240.599 161.998 237.699 155.698C235.899 152.398 234.499 148.998 231.999 146.398Z" fill="white"/>
<path d="M211.899 227.699C211.899 226.199 211.399 225.499 209.699 225.799C202.199 225.799 194.599 225.799 186.899 225.799C184.999 225.799 183.999 226.499 184.199 228.499C184.199 235.499 184.399 242.399 184.199 249.399C184.199 251.799 185.199 252.299 187.099 252.299C190.699 252.299 194.399 252.299 198.299 252.299C202.199 252.299 205.799 252.299 209.699 252.299C211.399 252.299 212.099 251.799 211.899 250.099C211.899 242.599 211.899 235.299 211.899 227.699Z" fill="white"/>
</svg>

<?xml version="1.0" encoding="utf-8"?>
<!-- Generator: Adobe Illustrator 25.2.1, SVG Export Plug-In . SVG Version: 6.00 Build 0)  -->
<svg version="1.1" id="Layer_1" xmlns="http://www.w3.org/2000/svg" xmlns:xlink="http://www.w3.org/1999/xlink" x="0px" y="0px"
	 viewBox="0 0 360 360" style="enable-background:new 0 0 360 360;" xml:space="preserve">
<style type="text/css">
	.st0{fill:#02E30F;}
</style>
<g>
	<path class="st0" d="M296.5,284.6c-36.7,0-73.4,0-110.1,0l0,0c-35.7,0-71.5,0-106.9,0c-7,0-12.4-2.9-16.3-9
		c-3.4-4.9-4.1-10.2-1.5-15.3c1.9-4.1,5.1-7.3,9.7-9.5c6.3-3.2,11.4-0.7,16.8,1.7c1,0.5,2.2,1.7,2.9,3.2c1.9,3.6,3.2,7.3,4.1,11.2
		c0.5,2.2,2.7,2.2,4.6,2.2c2.4,0,1.9-1.7,1.9-3.2c0-26.3,0-52.7,0-79c0-27,0-53.7,0-80.7c0-2.9,0.7-3.9,3.9-3.9
		c63.4,0,126.9,0,190.3,0c5.1,0,4.1,0,4.1,4.1c0,58.1,0,116.2,0,174.3C300.2,283.9,299.5,284.6,296.5,284.6 M60.3,230.7
		c0-45.2,0-90.4,0-135.6c0-5.8,2.2-10.7,6.1-14.8c3.9-3.9,12.6-4.6,17.7-2.2c1.9,1,3.9,1.5,5.3,3.4c3.2,3.4,5.1,7,5.1,11.7
		c0,25.3,0,50.6,0,75.8l0,0c0,25.5,0,51,0,76.3c0,1.2,0.7,2.7-1.2,3.2c-0.5,0-1,0.5-1.2-0.2c-1-2.9-3.9-3.6-6.1-4.1
		c-3.2-0.7-6.1-3.2-9.2-2.2c-4.6,1.5-10.2,1-13.6,5.6c-0.7,1-1.5,0.7-2.2,0.7c-1.2-0.2-0.7-1.2-0.7-1.9
		C60.3,240.9,60.3,235.8,60.3,230.7 M306.3,287.1c0-62,0-124,0-186.2c0-0.7,0-1.7,0.2-2.4c0.2-1.9-0.5-3.2-2.4-3.2
		c-1.5,0-2.9,0-4.4,0c-63.9,0-127.6,0-191.5,0c-5.8,0-5.6,0-6.3-5.8c-0.2-2.4-0.7-4.9-2.9-7c-1.2-1.2-1.7-3.6-3.2-5.1
		c-3.2-3.2-6.3-5.8-10.9-7.3c-2.9-0.7-5.8-1.2-8.8-1.5c-4.4-0.2-7.5,1.9-10.9,3.9c-4.1,2.2-6.1,5.8-9,9c-0.7,1-1.2,2.7-1.2,3.4
		c0,3.9-1.9,7.5-1.9,11.4c0,56.1,0,112.3,0.2,168.4c0,4.6,1.2,9.2,3.9,13.4c0.7,1,0.7,1.9,0.7,3.2c0.2,0,0.7,0,0.7,0.2
		c2.4,4.4,6.1,6.8,10.9,7.8c1.2,1.9,3.9,0.2,5.1,2.2c0.2,0,0.7,0,1,0c28.2,0,56.6,0,84.8,0c47.6,0,95,0,142.7,0c0.5,0,1,0,1.5,0
		c0.7-0.7,1.7-1.7,2.4-2.4C306,288.8,306.3,287.8,306.3,287.1"/>
	<g>
		<path class="st0" d="M232,146.4c-5.3-6.1-12.6-8.8-19.7-11.4c-4.1-1.5-8.8-1-13.1-1c-5.6,0-11.4,1.5-16.8,2.9
			c-3.6,1-5.6,4.4-9,5.3c-2.4,0.7-4.1,2.9-5.3,4.6c-2.4,3.9-5.3,7.5-6.3,12.4c-0.7,3.4-2.4,6.6-2.2,10.5c0,1.7,0.5,2.4,2.4,2.4
			c6.3,0,12.9,0,19.2,0c1.7,0,2.7-0.7,3.4-2.2c1.2-2.4,1.5-5.1,2.2-7.5c3.6-9.5,19.7-10.5,24.8-1.2c1.5,2.9,3.2,5.6,1.7,9
			c-2.4,4.9-6.6,8.3-10.5,11.7c-3.9,3.4-8.8,6.1-11.2,11.2c-2.2,4.6-4.4,9.2-4.1,14.3c0,1.7,0,3.6,0,5.3c6.6,0,13.1,0,19.7,0.2
			c1.2,0,1.7-0.2,2.2-1.7c1-2.2,0.7-4.9,1.7-7c1.9-4.4,6.3-6.3,9.5-9.2c1.2-1,2.4-2.4,3.9-2.9c2.2-0.7,3.6-2.2,4.9-4.1
			c0.5-1,5.8-5.8,8.8-13.1c2.7-6.3,2.4-12.9-0.5-19.2C235.9,152.4,234.5,149,232,146.4"/>
		<path class="st0" d="M211.9,227.7c0-1.5-0.5-2.2-2.2-1.9c-7.5,0-15.1,0-22.8,0c-1.9,0-2.9,0.7-2.7,2.7c0,7,0.2,13.9,0,20.9
			c0,2.4,1,2.9,2.9,2.9c3.6,0,7.3,0,11.2,0l0,0c3.9,0,7.5,0,11.4,0c1.7,0,2.4-0.5,2.2-2.2C211.9,242.6,211.9,235.3,211.9,227.7"/>
	</g>
</g>
</svg>
